X:1
T:I Have a Little Dreidel
T:I Have a Little Dreidel
T:Traditional Hanukkah Song (orginally in Yiddish by Mikhl Gelbart, 1889-1962) Arranged for Clarinet and Double Bass (Dominic Widdows)
%%score 1 2 3
L:1/8
M:4/4
K:Bb
V:1 treble nm="Voice" snm="Vo."
V:2 treble transpose=-2 nm="BaccidentalFlat Clarinet" snm="BaccidentalFlat Cl."
V:3 bass-8 nm="Double Bass" snm="Cb."
V:1
 B,2 |: B,B,CD FD z D | FFED C2 z C | CCDD EC z C | FFEC B,2 D2 | FDFD FD z D | FFED C2 z C | %7
w: I~|have a lit- tle drei- del I|made it out of clay *|when it's dry and rea- dy O|Drei- del I will play O...|Drei- del Drei- del drei- del I|made it out of clay *|
w: ||* * * * * And||||* * * * * And|
 ECEC EC z C |1 FFEC B,2 F,2 :|2 FFEC B,2 z2 |] %10
w: when it's dry and rea- dy O|Drei- del I will play I|Drei- del I will play|
w: |||
V:2
[K:C] C2 |: CCDE GE z E | GGFE D2 z D | DDEE FD z D | GGFD C2 E2 | GEGE GE z E | GGFE D2 z D | %7
 FDFD FD z D |1 GGFD C2 G,2 :|2 GGFD C2 z2 |] %10
V:3
 z2 |:"^Pizz." B,,2 z2 B,,2 z2 | B,,2 z2 F,2 z2 | F,,2 z2 F,2 C,2 | F,,2 z2 B,,2 F,2 | %5
 B,,2 F,2 B,,2 F,2 | B,,2 C,D, F,2 C,2 | F,,2 C,2 F,,2 C,2 |1 F,,2 G,,A,, B,,2 z2 :|2 %9
 F,,2 G,,A,, B,,2 z2 |] %10

